images/icon-twitter.svg

<svg width="40" height="40" viewBox="0 0 40 40" fill="none" xmlns="http://www.w3.org/2000/svg">
<path d="M39.8907 11.7601C39.797 9.63478 39.4533 8.17362 38.961 6.9075C38.4531 5.56354 37.6717 4.3603 36.6479 3.36004C35.6476 2.34421 34.4365 1.55487 33.1081 1.0549C31.8346 0.562551 30.3811 0.218854 28.2557 0.125147C26.1145 0.0235032 25.4347 0 20.004 0C14.5732 0 13.8934 0.0235032 11.7601 0.117211C9.63478 0.210918 8.17362 0.55492 6.9078 1.04696C5.56354 1.55487 4.3603 2.33628 3.36004 3.36004C2.34421 4.3603 1.55518 5.57148 1.0549 6.89987C0.562551 8.17362 0.218854 9.62685 0.125147 11.7522C0.0235032 13.8934 0 14.5732 0 20.004C0 25.4347 0.0235032 26.1145 0.117211 28.2478C0.210918 30.3731 0.55492 31.8343 1.04727 33.1004C1.55518 34.4444 2.34421 35.6476 3.36004 36.6479C4.3603 37.6637 5.57148 38.4531 6.89987 38.953C8.17362 39.4454 9.62685 39.7891 11.7525 39.8828C13.8855 39.9768 14.5656 40 19.9963 40C25.4271 40 26.1069 39.9768 28.2402 39.8828C30.3655 39.7891 31.8267 39.4454 33.0925 38.953C35.7807 37.9137 37.9061 35.7883 38.9454 33.1004C39.4375 31.8267 39.7814 30.3731 39.8752 28.2478C39.9689 26.1145 39.9924 25.4347 39.9924 20.004C39.9924 14.5732 39.9844 13.8934 39.8907 11.7601ZM36.2886 28.0915C36.2026 30.045 35.8744 31.0999 35.6009 31.8032C34.9288 33.5458 33.5458 34.9288 31.8032 35.6009C31.0999 35.8744 30.0374 36.2026 28.0915 36.2883C25.9817 36.3823 25.349 36.4055 20.0119 36.4055C14.6748 36.4055 14.0342 36.3823 11.932 36.2883C9.97848 36.2026 8.92358 35.8744 8.22032 35.6009C7.35314 35.2804 6.5638 34.7725 5.92311 34.1083C5.25892 33.4597 4.751 32.6783 4.43051 31.8111C4.15701 31.1079 3.82888 30.045 3.74311 28.0994C3.6491 25.9897 3.6259 25.3566 3.6259 20.0195C3.6259 14.6825 3.6491 14.0418 3.74311 11.9399C3.82888 9.98642 4.15701 8.93152 4.43051 8.22826C4.751 7.36077 5.25892 6.57174 5.93105 5.93074C6.57937 5.26655 7.36077 4.75863 8.22826 4.43844C8.93152 4.16495 9.99435 3.83682 11.9399 3.75074C14.0497 3.65704 14.6828 3.63353 20.0195 3.63353C25.3645 3.63353 25.9973 3.65704 28.0994 3.75074C30.053 3.83682 31.1079 4.16495 31.8111 4.43844C32.6783 4.75863 33.4676 5.26655 34.1083 5.93074C34.7725 6.57937 35.2804 7.36077 35.6009 8.22826C35.8744 8.93152 36.2026 9.99405 36.2886 11.9399C36.3823 14.0497 36.4058 14.6825 36.4058 20.0195C36.4058 25.3566 36.3823 25.9817 36.2886 28.0915Z" fill="#CCCCCC"/>
<path d="M15.5478 29.5049C24.6048 29.5049 29.5577 22.0014 29.5577 15.4949C29.5577 15.2818 29.5533 15.0696 29.5438 14.8585C30.5051 14.1634 31.3407 13.296 32 12.3087C31.1178 12.701 30.1682 12.9648 29.1723 13.0841C30.1889 12.4743 30.9694 11.51 31.3375 10.3605C30.3861 10.9245 29.3325 11.3343 28.2108 11.5556C27.3123 10.5985 26.0329 10 24.6164 10C21.8974 10 19.6922 12.2051 19.6922 14.9233C19.6922 15.3099 19.7354 15.6856 19.8198 16.046C15.7274 15.8401 12.0984 13.8809 9.6701 10.9015C9.2474 11.629 9.00347 12.4744 9.00347 13.3764C9.00347 15.0846 9.87279 16.5929 11.1946 17.475C10.3868 17.4502 9.62797 17.2284 8.96457 16.8593C8.96384 16.88 8.96384 16.9001 8.96384 16.9221C8.96384 19.3068 10.6611 21.2979 12.9145 21.7491C12.5006 21.8617 12.0651 21.9223 11.616 21.9223C11.2992 21.9223 10.9904 21.8912 10.6904 21.8335C11.3173 23.7899 13.1352 25.2136 15.2904 25.2535C13.605 26.5745 11.482 27.3613 9.1746 27.3613C8.77773 27.3613 8.38542 27.3385 8 27.293C10.1792 28.6899 12.7668 29.5049 15.5478 29.5049Z" fill="#CCCCCC"/>
</svg>

<svg width="40" height="40" fill="none" xmlns="http://www.w3.org/2000/svg"><path d="M39.89 11.76c-.093-2.125-.437-3.586-.929-4.853a9.76 9.76 0 00-2.313-3.547 9.844 9.844 0 00-3.54-2.305c-1.273-.492-2.727-.836-4.852-.93C26.114.024 25.435 0 20.004 0c-5.43 0-6.11.024-8.244.117-2.125.094-3.586.438-4.852.93A9.76 9.76 0 003.36 3.36 9.848 9.848 0 001.055 6.9C.563 8.174.219 9.627.125 11.752.024 13.893 0 14.573 0 20.004c0 5.43.024 6.11.117 8.244.094 2.125.438 3.586.93 4.852a9.864 9.864 0 002.313 3.548 9.843 9.843 0 003.54 2.305c1.274.492 2.727.836 4.852.93 2.133.094 2.814.117 8.244.117 5.431 0 6.11-.023 8.244-.117 2.126-.094 3.587-.438 4.853-.93a10.231 10.231 0 005.852-5.853c.492-1.273.836-2.727.93-4.852.094-2.134.117-2.813.117-8.244 0-5.43-.008-6.11-.101-8.244zm-3.6 16.332c-.086 1.953-.415 3.008-.688 3.711a6.635 6.635 0 01-3.798 3.798c-.703.273-1.766.602-3.712.687-2.11.094-2.742.118-8.08.118-5.336 0-5.977-.024-8.079-.118-1.954-.085-3.008-.414-3.712-.687a6.155 6.155 0 01-2.297-1.493 6.218 6.218 0 01-1.492-2.297c-.274-.703-.602-1.766-.688-3.712-.094-2.11-.117-2.742-.117-8.08 0-5.336.023-5.977.117-8.08.086-1.953.414-3.007.688-3.71a6.08 6.08 0 011.5-2.298 6.21 6.21 0 012.297-1.493c.704-.273 1.766-.601 3.712-.687 2.11-.094 2.743-.117 8.08-.117 5.345 0 5.977.023 8.08.117 1.953.086 3.008.414 3.711.687a6.15 6.15 0 012.297 1.493 6.217 6.217 0 011.493 2.297c.273.704.602 1.766.688 3.712.093 2.11.117 2.742.117 8.08 0 5.337-.024 5.962-.117 8.072z" fill="#CCC"/><path d="M15.548 29.505c9.057 0 14.01-7.504 14.01-14.01 0-.213-.005-.425-.014-.636A10.022 10.022 0 0032 12.308a9.823 9.823 0 01-2.828.775 4.942 4.942 0 002.165-2.723 9.876 9.876 0 01-3.126 1.195 4.925 4.925 0 00-8.391 4.49 13.98 13.98 0 01-10.15-5.144 4.912 4.912 0 00-.667 2.474 4.92 4.92 0 002.192 4.099 4.886 4.886 0 01-2.23-.616l-.001.063a4.925 4.925 0 003.95 4.827 4.941 4.941 0 01-2.224.085 4.93 4.93 0 004.6 3.42 9.878 9.878 0 01-6.115 2.107c-.397 0-.79-.023-1.175-.068a13.937 13.937 0 007.548 2.212z" fill="#CCC"/></svg>
